X: 5966
T: Campbells Are Coming, The
R: jig
M: 6/8
K: Dmajor
E|:FAB AFD|FGF ~F2E|FAB AFD|EFE ~E2D|
FAB AFD|FGF def|dBd AFD|1 FGF F2E:|2 FGF F2A||
|:d2d def|ABA AFD|d2d def|dBB ~B2A|ABc dcB|
ABc def|dBd AFD|1 FGF ~F2A:|2 FGF ~F2||

